source/img/zigzag-pattern.svg

<svg width="32" height="6" viewBox="0 0 32 6" fill="none" xmlns="http://www.w3.org/2000/svg">
<path d="M320 6C317.496 6 316.188 4.8 315.13 3.83478C314.184 2.97391 313.489 2.34783 312.014 2.34783C310.511 2.34783 309.843 2.97391 308.897 3.83478C307.84 4.8 306.532 6 304.028 6C301.523 6 300.216 4.8 299.158 3.83478C298.212 2.97391 297.517 2.34783 296.042 2.34783C294.567 2.34783 293.871 2.97391 292.925 3.83478C291.868 4.8 290.56 6 288.056 6C285.551 6 284.243 4.8 283.186 3.83478C282.24 2.97391 281.544 2.34783 280.07 2.34783C278.567 2.34783 277.899 2.97391 276.953 3.83478C275.896 4.8 274.588 6 272.083 6C269.579 6 268.271 4.8 267.214 3.83478C266.268 2.97391 265.572 2.34783 264.097 2.34783C262.595 2.34783 261.927 2.97391 260.981 3.83478C259.812 4.8 258.504 6 256 6C253.496 6 252.188 4.8 251.13 3.83478C250.184 2.97391 249.489 2.34783 248.014 2.34783C246.511 2.34783 245.843 2.97391 244.897 3.83478C243.84 4.8 242.532 6 240.028 6C237.523 6 236.216 4.8 235.158 3.83478C234.212 2.97391 233.517 2.34783 232.042 2.34783C230.539 2.34783 229.871 2.97391 228.925 3.83478C227.812 4.8 226.504 6 224 6C221.496 6 220.188 4.8 219.13 3.83478C218.184 2.97391 217.489 2.34783 216.014 2.34783C214.511 2.34783 213.843 2.97391 212.897 3.83478C211.84 4.8 210.532 6 208.028 6C205.523 6 204.216 4.8 203.158 3.83478C202.212 2.97391 201.517 2.34783 200.042 2.34783C198.567 2.34783 197.871 2.97391 196.925 3.83478C195.84 4.8 194.504 6 192 6C189.496 6 188.188 4.8 187.13 3.83478C186.184 2.97391 185.489 2.34783 184.014 2.34783C182.511 2.34783 181.843 2.97391 180.897 3.83478C179.84 4.8 178.532 6 176.028 6C173.523 6 172.216 4.8 171.158 3.83478C170.212 2.97391 169.517 2.34783 168.042 2.34783C166.539 2.34783 165.871 2.97391 164.925 3.83478C163.868 4.8 162.56 6 160.056 6C157.551 6 156.243 4.8 155.186 3.83478C154.24 2.97391 153.544 2.34783 152.07 2.34783C150.595 2.34783 149.899 2.97391 148.953 3.83478C147.896 4.8 146.588 6 144.083 6C141.579 6 140.271 4.8 139.214 3.83478C138.268 2.97391 137.572 2.34783 136.097 2.34783C134.595 2.34783 133.927 2.97391 132.981 3.83478C131.923 4.8 130.616 6 128.111 6C125.607 6 124.299 4.8 123.242 3.83478C122.296 2.97391 121.6 2.34783 120.125 2.34783C118.623 2.34783 117.955 2.97391 117.009 3.83478C115.951 4.8 114.643 6 112.139 6C109.635 6 108.327 4.8 107.27 3.83478C106.323 2.97391 105.628 2.34783 104.153 2.34783C102.65 2.34783 101.983 2.97391 101.037 3.83478C99.9791 4.8 98.6713 6 96.167 6C93.6626 6 92.3548 4.8 91.2974 3.83478C90.3513 2.97391 89.6556 2.34783 88.1809 2.34783C86.7061 2.34783 86.0104 2.97391 85.0643 3.83478C84.007 4.8 82.6991 6 80.1948 6C77.6904 6 76.3826 4.8 75.3252 3.83478C74.3791 2.97391 73.6835 2.34783 72.2087 2.34783C70.7061 2.34783 70.0383 2.97391 69.0922 3.83478C68.0348 4.8 66.727 6 64.2226 6C61.7183 6 60.4104 4.8 59.353 3.83478C58.407 2.97391 57.7113 2.34783 56.2365 2.34783C54.7339 2.34783 54.0661 2.97391 53.12 3.83478C52.0626 4.8 50.7548 6 48.2504 6C45.7461 6 44.4383 4.8 43.3809 3.83478C42.4348 2.97391 41.7391 2.34783 40.2643 2.34783C38.7617 2.34783 38.0939 2.97391 37.1478 3.83478C35.84 4.8 34.5043 6 32 6C29.4957 6 28.1878 4.8 27.1304 3.83478C26.1843 2.97391 25.4887 2.34783 24.0139 2.34783C22.5113 2.34783 21.8435 2.97391 20.8974 3.83478C19.84 4.8 18.5322 6 16.0278 6C13.5235 6 12.2157 4.8 11.1583 3.83478C10.1843 2.97391 9.4887 2.34783 8.01391 2.34783C6.5113 2.34783 5.84348 2.97391 4.89739 3.83478C3.81217 4.8 2.50435 6 0 6V3.65217C1.50261 3.65217 2.17043 3.02609 3.11652 2.16522C4.17391 1.2 5.48174 0 8.01391 0C10.5183 0 11.8261 1.2 12.8835 2.16522C13.8296 3.02609 14.5252 3.65217 16 3.65217C17.5026 3.65217 18.1704 3.02609 19.1165 2.16522C20.1739 1.2 21.5096 0 24.0139 0C26.5183 0 27.8261 1.2 28.8835 2.16522C29.8296 3.02609 30.5252 3.65217 32 3.65217C33.5026 3.65217 34.1704 3.02609 35.1165 2.16522C36.1739 1.2 37.4817 0 39.9861 0C42.4904 0 43.7983 1.2 44.8556 2.16522C45.8017 3.02609 46.4974 3.65217 47.9722 3.65217C49.4748 3.65217 50.1426 3.02609 51.0887 2.16522C52.1461 1.2 53.4539 0 55.9583 0C58.4626 0 59.7704 1.2 60.8278 2.16522C61.7739 3.02609 62.4696 3.65217 63.9443 3.65217C65.447 3.65217 66.1148 3.02609 67.0609 2.16522C68.1183 1.2 69.4261 0 71.9304 0C74.4348 0 75.7426 1.2 76.8 2.16522C77.7461 3.02609 78.4417 3.65217 79.9165 3.65217C81.4191 3.65217 82.087 3.02609 83.033 2.16522C84.0904 1.2 85.3983 0 87.9026 0C90.407 0 91.7148 1.2 92.7722 2.16522C93.7183 3.02609 94.4139 3.65217 95.8887 3.65217C97.3913 3.65217 98.0591 3.02609 99.0052 2.16522C100.063 1.2 101.37 0 103.875 0C106.379 0 107.687 1.2 108.744 2.16522C109.69 3.02609 110.386 3.65217 111.861 3.65217C113.336 3.65217 114.031 3.02609 114.977 2.16522C116.035 1.2 117.343 0 119.847 0C122.351 0 123.659 1.2 124.717 2.16522C125.663 3.02609 126.358 3.65217 127.833 3.65217C129.336 3.65217 130.003 3.02609 130.95 2.16522C132.007 1.2 133.315 0 135.819 0C138.323 0 139.631 1.2 140.689 2.16522C141.635 3.02609 142.33 3.65217 143.805 3.65217C145.308 3.65217 145.976 3.02609 146.922 2.16522C147.979 1.2 149.287 0 151.791 0C154.296 0 155.603 1.2 156.661 2.16522C157.607 3.02609 158.303 3.65217 159.777 3.65217C161.28 3.65217 161.948 3.02609 162.894 2.16522C163.951 1.2 165.259 0 167.763 0C170.268 0 171.576 1.2 172.633 2.16522C173.579 3.02609 174.275 3.65217 175.75 3.65217C177.252 3.65217 177.92 3.02609 178.866 2.16522C179.923 1.2 181.231 0 183.736 0C186.24 0 187.548 1.2 188.605 2.16522C189.551 3.02609 190.247 3.65217 191.722 3.65217C193.224 3.65217 193.892 3.02609 194.838 2.16522C195.896 1.2 197.203 0 199.708 0C202.212 0 203.52 1.2 204.577 2.16522C205.523 3.02609 206.219 3.65217 207.694 3.65217C209.197 3.65217 209.864 3.02609 210.81 2.16522C211.868 1.2 213.176 0 215.68 0C218.184 0 219.492 1.2 220.55 2.16522C221.496 3.02609 222.191 3.65217 223.666 3.65217C225.169 3.65217 225.837 3.02609 226.783 2.16522C228.174 1.2 229.482 0 232.014 0C234.518 0 235.826 1.2 236.883 2.16522C237.83 3.02609 238.525 3.65217 240 3.65217C241.475 3.65217 242.17 3.02609 243.117 2.16522C244.174 1.2 245.482 0 247.986 0C250.49 0 251.798 1.2 252.856 2.16522C253.802 3.02609 254.497 3.65217 255.972 3.65217C257.447 3.65217 258.143 3.02609 259.089 2.16522C260.174 1.2 261.482 0 264.014 0C266.546 0 267.826 1.2 268.883 2.16522C269.83 3.02609 270.525 3.65217 272 3.65217C273.475 3.65217 274.17 3.02609 275.117 2.16522C276.174 1.2 277.482 0 279.986 0C282.49 0 283.798 1.2 284.856 2.16522C285.802 3.02609 286.497 3.65217 287.972 3.65217C289.475 3.65217 290.143 3.02609 291.089 2.16522C292.146 1.2 293.454 0 295.958 0C298.463 0 299.77 1.2 300.828 2.16522C301.774 3.02609 302.47 3.65217 303.944 3.65217C305.419 3.65217 306.115 3.02609 307.061 2.16522C308.118 1.2 309.426 0 311.93 0C314.435 0 315.743 1.2 316.8 2.16522C317.746 3.02609 318.442 3.65217 319.916 3.65217V6H320Z" fill="#F1F1F1"/>
</svg>

<svg viewBox="0 0 32 6" fill="none" xmlns="http://www.w3.org/2000/svg"><path d="M320 6c-2.504 0-3.812-1.2-4.87-2.165-.946-.861-1.641-1.487-3.116-1.487-1.503 0-2.171.626-3.117 1.487C307.84 4.8 306.532 6 304.028 6c-2.505 0-3.812-1.2-4.87-2.165-.946-.861-1.641-1.487-3.116-1.487s-2.171.626-3.117 1.487C291.868 4.8 290.56 6 288.056 6c-2.505 0-3.813-1.2-4.87-2.165-.946-.861-1.642-1.487-3.116-1.487-1.503 0-2.171.626-3.117 1.487C275.896 4.8 274.588 6 272.083 6c-2.504 0-3.812-1.2-4.869-2.165-.946-.861-1.642-1.487-3.117-1.487-1.502 0-2.17.626-3.116 1.487C259.812 4.8 258.504 6 256 6s-3.812-1.2-4.87-2.165c-.946-.861-1.641-1.487-3.116-1.487-1.503 0-2.171.626-3.117 1.487C243.84 4.8 242.532 6 240.028 6c-2.505 0-3.812-1.2-4.87-2.165-.946-.861-1.641-1.487-3.116-1.487-1.503 0-2.171.626-3.117 1.487C227.812 4.8 226.504 6 224 6s-3.812-1.2-4.87-2.165c-.946-.861-1.641-1.487-3.116-1.487-1.503 0-2.171.626-3.117 1.487C211.84 4.8 210.532 6 208.028 6c-2.505 0-3.812-1.2-4.87-2.165-.946-.861-1.641-1.487-3.116-1.487s-2.171.626-3.117 1.487C195.84 4.8 194.504 6 192 6s-3.812-1.2-4.87-2.165c-.946-.861-1.641-1.487-3.116-1.487-1.503 0-2.171.626-3.117 1.487C179.84 4.8 178.532 6 176.028 6c-2.505 0-3.812-1.2-4.87-2.165-.946-.861-1.641-1.487-3.116-1.487-1.503 0-2.171.626-3.117 1.487C163.868 4.8 162.56 6 160.056 6c-2.505 0-3.813-1.2-4.87-2.165-.946-.861-1.642-1.487-3.116-1.487-1.475 0-2.171.626-3.117 1.487C147.896 4.8 146.588 6 144.083 6c-2.504 0-3.812-1.2-4.869-2.165-.946-.861-1.642-1.487-3.117-1.487-1.502 0-2.17.626-3.116 1.487C131.923 4.8 130.616 6 128.111 6c-2.504 0-3.812-1.2-4.869-2.165-.946-.861-1.642-1.487-3.117-1.487-1.502 0-2.17.626-3.116 1.487C115.951 4.8 114.643 6 112.139 6s-3.812-1.2-4.869-2.165c-.947-.861-1.642-1.487-3.117-1.487-1.503 0-2.17.626-3.116 1.487C99.979 4.8 98.671 6 96.167 6s-3.812-1.2-4.87-2.165c-.946-.861-1.641-1.487-3.116-1.487s-2.17.626-3.117 1.487C84.007 4.8 82.7 6 80.194 6c-2.504 0-3.811-1.2-4.869-2.165-.946-.861-1.642-1.487-3.116-1.487-1.503 0-2.17.626-3.117 1.487C68.035 4.8 66.727 6 64.222 6c-2.504 0-3.812-1.2-4.869-2.165-.946-.861-1.642-1.487-3.117-1.487-1.502 0-2.17.626-3.116 1.487C52.063 4.8 50.755 6 48.25 6c-2.504 0-3.812-1.2-4.87-2.165-.945-.861-1.64-1.487-3.116-1.487-1.502 0-2.17.626-3.116 1.487C35.84 4.8 34.504 6 32 6c-2.504 0-3.812-1.2-4.87-2.165-.946-.861-1.641-1.487-3.116-1.487-1.503 0-2.17.626-3.117 1.487C19.84 4.8 18.532 6 16.027 6c-2.504 0-3.811-1.2-4.869-2.165-.974-.861-1.67-1.487-3.144-1.487-1.503 0-2.17.626-3.117 1.487C3.812 4.8 2.504 6 0 6V3.652c1.503 0 2.17-.626 3.117-1.487C4.174 1.2 5.482 0 8.014 0c2.504 0 3.812 1.2 4.87 2.165.946.861 1.641 1.487 3.116 1.487 1.503 0 2.17-.626 3.116-1.487C20.174 1.2 21.51 0 24.014 0c2.504 0 3.812 1.2 4.87 2.165.946.861 1.641 1.487 3.116 1.487 1.503 0 2.17-.626 3.117-1.487C36.174 1.2 37.482 0 39.986 0c2.503 0 3.811 1.2 4.869 2.165.946.861 1.641 1.487 3.116 1.487 1.503 0 2.17-.626 3.117-1.487C52.146 1.2 53.454 0 55.959 0c2.504 0 3.811 1.2 4.869 2.165.946.861 1.642 1.487 3.116 1.487 1.503 0 2.17-.626 3.117-1.487C68.118 1.2 69.426 0 71.93 0c2.504 0 3.812 1.2 4.869 2.165.946.861 1.642 1.487 3.117 1.487 1.502 0 2.17-.626 3.116-1.487C84.09 1.2 85.398 0 87.903 0c2.504 0 3.812 1.2 4.87 2.165.945.861 1.64 1.487 3.116 1.487 1.502 0 2.17-.626 3.116-1.487C100.063 1.2 101.37 0 103.875 0c2.504 0 3.812 1.2 4.869 2.165.946.861 1.642 1.487 3.117 1.487s2.17-.626 3.116-1.487C116.035 1.2 117.343 0 119.847 0s3.812 1.2 4.87 2.165c.946.861 1.641 1.487 3.116 1.487 1.503 0 2.17-.626 3.117-1.487C132.007 1.2 133.315 0 135.819 0c2.504 0 3.812 1.2 4.87 2.165.946.861 1.641 1.487 3.116 1.487 1.503 0 2.171-.626 3.117-1.487C147.979 1.2 149.287 0 151.791 0c2.505 0 3.812 1.2 4.87 2.165.946.861 1.642 1.487 3.116 1.487 1.503 0 2.171-.626 3.117-1.487C163.951 1.2 165.259 0 167.763 0c2.505 0 3.813 1.2 4.87 2.165.946.861 1.642 1.487 3.117 1.487 1.502 0 2.17-.626 3.116-1.487C179.923 1.2 181.231 0 183.736 0c2.504 0 3.812 1.2 4.869 2.165.946.861 1.642 1.487 3.117 1.487 1.502 0 2.17-.626 3.116-1.487C195.896 1.2 197.203 0 199.708 0c2.504 0 3.812 1.2 4.869 2.165.946.861 1.642 1.487 3.117 1.487 1.503 0 2.17-.626 3.116-1.487C211.868 1.2 213.176 0 215.68 0s3.812 1.2 4.87 2.165c.946.861 1.641 1.487 3.116 1.487 1.503 0 2.171-.626 3.117-1.487C228.174 1.2 229.482 0 232.014 0c2.504 0 3.812 1.2 4.869 2.165.947.861 1.642 1.487 3.117 1.487s2.17-.626 3.117-1.487C244.174 1.2 245.482 0 247.986 0c2.504 0 3.812 1.2 4.87 2.165.946.861 1.641 1.487 3.116 1.487s2.171-.626 3.117-1.487C260.174 1.2 261.482 0 264.014 0s3.812 1.2 4.869 2.165c.947.861 1.642 1.487 3.117 1.487s2.17-.626 3.117-1.487C276.174 1.2 277.482 0 279.986 0c2.504 0 3.812 1.2 4.87 2.165.946.861 1.641 1.487 3.116 1.487 1.503 0 2.171-.626 3.117-1.487C292.146 1.2 293.454 0 295.958 0c2.505 0 3.812 1.2 4.87 2.165.946.861 1.642 1.487 3.116 1.487 1.475 0 2.171-.626 3.117-1.487C308.118 1.2 309.426 0 311.93 0c2.505 0 3.813 1.2 4.87 2.165.946.861 1.642 1.487 3.116 1.487V6H320Z" fill="#F1F1F1"/></svg>
